packages/brickdoc-design-icons/assets/basic/paper-clip.svg

<svg width="1em" height="1em" viewBox="0 0 24 24" fill="none" xmlns="http://www.w3.org/2000/svg">
<path fill-rule="evenodd" clip-rule="evenodd" d="M11.4773 3.45271C12.4203 2.54192 13.6833 2.03795 14.9943 2.04934C16.3053 2.06073 17.5593 2.58657 18.4864 3.51361C19.4134 4.44065 19.9393 5.69472 19.9507 7.0057C19.9621 8.31669 19.4581 9.5797 18.5473 10.5227L18.5444 10.5257L12.1333 17.1087C12.1328 17.1092 12.1322 17.1098 12.1317 17.1103C11.8553 17.3961 11.5248 17.6241 11.1595 17.781C10.7935 17.9382 10.3998 18.021 10.0015 18.0245C9.60316 18.0279 9.20812 17.952 8.83943 17.8012C8.47074 17.6503 8.13579 17.4276 7.85411 17.1459C7.57243 16.8642 7.34967 16.5293 7.19883 16.1606C7.04799 15.7919 6.97208 15.3968 6.97554 14.9985C6.979 14.6002 7.06176 14.2065 7.21899 13.8405C7.37496 13.4774 7.6011 13.1488 7.88441 12.8734L14.4649 6.29289C14.8554 5.90236 15.4886 5.90236 15.8791 6.29289C16.2696 6.68341 16.2696 7.31658 15.8791 7.7071L9.29311 14.2931L9.28072 14.3053C9.18521 14.3975 9.10902 14.5079 9.05662 14.6299C9.00421 14.7519 8.97662 14.8831 8.97547 15.0159C8.97431 15.1487 8.99961 15.2803 9.04989 15.4032C9.10017 15.5261 9.17443 15.6378 9.26832 15.7317C9.36221 15.8256 9.47387 15.8998 9.59676 15.9501C9.71966 16.0004 9.85134 16.0257 9.98412 16.0245C10.1169 16.0234 10.2481 15.9958 10.3701 15.9434C10.4921 15.891 10.6025 15.8148 10.6947 15.7193L10.6976 15.7163L17.1087 9.13328C17.1092 9.13283 17.1096 9.13237 17.11 9.13192C17.6557 8.56626 17.9576 7.80904 17.9507 7.02308C17.9439 6.23649 17.6284 5.48405 17.0722 4.92783C16.5159 4.3716 15.7635 4.0561 14.9769 4.04926C14.195 4.04247 13.4416 4.3412 12.8769 4.88149L6.46417 11.4642C5.52639 12.4019 4.9995 13.6738 4.9995 15C4.9995 16.3262 5.52633 17.5981 6.46411 18.5359C7.40189 19.4737 8.67379 20.0005 10 20.0005C11.3262 20.0005 12.5981 19.4737 13.5359 18.5359L19.7937 12.2921C20.1847 11.902 20.8178 11.9027 21.2079 12.2937C21.598 12.6846 21.5973 13.3178 21.2063 13.7079L14.9501 19.9501C14.95 19.9502 14.9502 19.95 14.9501 19.9501C13.6373 21.2627 11.8565 22.0005 10 22.0005C8.14335 22.0005 6.36275 21.263 5.0499 19.9501C3.73705 18.6373 2.9995 16.8566 2.9995 15C2.9995 13.1456 3.73525 11.3671 5.0451 10.0547L11.4557 3.4742C11.4628 3.46692 11.47 3.45976 11.4773 3.45271Z" fill="currentColor"/>
</svg>

<svg  viewBox="0 0 24 24" width="1em" height="1em" fill="none" xmlns="http://www.w3.org/2000/svg"><path fill-rule="evenodd" clip-rule="evenodd" d="M11.477 3.453a5 5 0 0 1 7.07 7.07l-.003.003-6.41 6.583-.002.001a2.999 2.999 0 1 1-4.248-4.237l6.58-6.58a1 1 0 1 1 1.415 1.414l-6.586 6.586-.012.012a1 1 0 1 0 1.414 1.414l.003-.003 6.41-6.583.002-.001a3 3 0 0 0-4.233-4.25l-6.413 6.582a5 5 0 1 0 7.072 7.072l6.258-6.244a1 1 0 1 1 1.412 1.416L14.95 19.95a7.002 7.002 0 0 1-9.905-9.895l6.41-6.58.022-.022Z" fill="#34313c"/></svg>
